lib/flags/l/792.svg

<svg xmlns="http://www.w3.org/2000/svg" fill="none" viewBox="0 0 32 24"><mask id="792_svg__a" width="32" height="24" x="0" y="0" mask-type="alpha" maskUnits="userSpaceOnUse"><path fill="#fff" d="M0 0H32V24H0z"/></mask><g mask="url(#792_svg__a)"><path fill="#E31D1C" fill-rule="evenodd" d="M0 0V24H32V0H0Z" clip-rule="evenodd"/><mask id="792_svg__b" width="32" height="24" x="0" y="0" mask-type="alpha" maskUnits="userSpaceOnUse"><path fill="#fff" fill-rule="evenodd" d="M0 0V24H32V0H0Z" clip-rule="evenodd"/></mask><g mask="url(#792_svg__b)"><path fill="#F7FCFF" fill-rule="evenodd" d="M16.0255 16.1134C13.8841 15.5859 12.207 13.7936 12.2265 11.1662C12.2447 8.7068 13.7338 6.62795 16.0877 6.06518C18.4417 5.50242 20.5141 6.69703 20.5141 6.69703C19.8635 5.16122 17.6033 4.08227 15.7503 4.08537C12.3011 4.09115 8.62423 6.88839 8.59253 11.1662C8.55968 15.6012 12.5299 18.1269 16.0217 18.1211C18.821 18.1164 20.1488 16.2013 20.4238 15.3866C20.4238 15.3866 18.1668 16.6409 16.0255 16.1134ZM20.9033 10.3265L18.7699 11.1101L21.1771 11.9593L21.136 14.4967L22.7222 12.5931L25.3423 12.7835L23.266 10.9987L24.6291 9.09493L22.4096 9.84191L20.8232 8.07832L20.9033 10.3265Z" clip-rule="evenodd"/></g></g></svg>

<svg xmlns="http://www.w3.org/2000/svg" fill="none" viewBox="0 0 32 24"><mask id="792_svg__a" width="32" height="24" x="0" y="0" maskUnits="userSpaceOnUse"><path fill="#fff" d="M0 0h32v24H0z"/></mask><g mask="url(#792_svg__a)"><path fill="#E31D1C" fill-rule="evenodd" d="M0 0v24h32V0H0z" clip-rule="evenodd"/><mask id="792_svg__b" width="32" height="24" x="0" y="0" maskUnits="userSpaceOnUse"><path fill="#fff" fill-rule="evenodd" d="M0 0v24h32V0H0z" clip-rule="evenodd"/></mask><g mask="url(#792_svg__b)"><path fill="#F7FCFF" fill-rule="evenodd" d="M16.026 16.113c-2.142-.527-3.819-2.32-3.8-4.947.019-2.46 1.508-4.538 3.862-5.1 2.354-.563 4.426.631 4.426.631-.65-1.536-2.91-2.615-4.764-2.612-3.449.006-7.126 2.804-7.157 7.081-.033 4.435 3.937 6.961 7.429 6.955 2.799-.005 4.127-1.92 4.402-2.734 0 0-2.257 1.254-4.398.726zm4.877-5.786l-2.133.783 2.407.85-.041 2.537 1.586-1.904 2.62.19L23.266 11l1.363-1.904-2.22.747-1.586-1.764.08 2.249z" clip-rule="evenodd"/></g></g></svg>
